X: 2
T: Reel de P\`ere L\'eon
R: reel
S: printed copy of unknown origin, from Paul Lizotte
Z: 2015 John Chambers <jc:trillian.mit.edu>
M: 4/4
L: 1/8
K: G
|: ef |\
"G"g2gf "C"gedc | "D7"BGAc "G"BGG2 |\
[1,3 "G"B3B "Am"cBAG | "D7" FGAB A2 |:\
[2,4 "G"B3B "Am"cBAG | "D7"FGAF "G"G2 :|
|: A2 |\
"G"B3B "C"cBAG | "G"BGBG "C"cBc2 |\
[1,3 "G"B3B "Am"cBAG | "D7"FGAB A2 :|\
[2,4 "G"BGBd "Am"cBAG | "D7"FGAF "G"G2 :|

%%sep 1 1 500

